!!!!SEGMENT: pl-sa--134-a-iii-34--005_graun-carl-heinrich--ad-te-o-clara.krn
!!!cenid: 17xx:618
!!!COM: Graun, Carl Heinrich
!!!COM-rismid: pe30001351
!!!CDT: 1704/05/07-1759/08/08
!!!CNT: German
!!!OTL: Ad te o Clara
!!!PDT:
!!!AGN: Sacred
!!!SMS-siglum: PL-SA
!!!SMS-shelfmark: 134/A III 34
!!!SMS-shelfwork: 005 W
!!!SMS-variant:
!!!SMS-altvar:
!!!NIFC-rismid: 1001041284
!!!URL-scan: http://bc.bdsandomierz.pl/dlibra/publication/1491/edition/1459/content
!!!ONB-nifc:
!!!AIN: 2 empty 1 viola 2 violn
!!!key:
**kern	**kern	**kern	**dynam	**kern	**dynam	**kern	**text
*part5	*part4	*part3	*part3	*part2	*	*part1	*part1
*staff5	*staff4	*staff3	*	*staff2	*	*staff1	*staff1
*group3	*group2	*group2	*	*group2	*	*group1	*
*Iempty	*Iviola	*Ivioln	*	*Ivioln	*	*Iempty	*
*I"Baſso	*I"Viola.	*I"Violino 2do.	*	*I"Violino 1mo	*	*I"	*
*I'b.c.	*I'vla	*I'vl 2	*	*I'vl 1	*	*I'C	*
*clefF4	*clefC3	*clefG2	*	*clefG2	*	*clefC1	*
*k[f#c#]	*k[f#c#]	*k[f#c#]	*	*k[f#c#]	*	*k[f#c#]	*
*D:	*D:	*D:	*	*D:	*	*D:	*
*M3/4	*M3/4	*M3/4	*	*M3/4	*	*M3/4	*
=1	=1	=1	=1	=1	=1	=1	=1
!	!	!	!	!	!	!LO:TX:a:t=24	!
!	!	!	!	!	!	!LO:TX:a:t=Vivace	!
!LO:TX:a:t=Vivace	!LO:TX:a:t=Vivace	!	!	!LO:TX:a:t=Vivace	!	!LO:TX:b:t=Aria 5ta	!
!LO:TX:b:t=Aria 5ta	!LO:TX:b:t=Aria 5ta	!LO:TX:b:t=Aria 5ta	!	!LO:TX:b:t=Aria 5ta	!	!LO:TX:a:t=problem:brak nazwy głosu	!
!	!	!	!	!	!	!LO:N:vis=00	!
4D\	4f#\	4a/	.	4a/	.	0.r	.
4r	4r	16dd\KL	.	16dd\KL	.	.	.
.	.	8.cc#\	.	8.cc#\	.	.	.
4r	4r	16ee\K	.	16ee\K	.	.	.
.	.	8.dd\J	.	8.dd\J	.	.	.
=2	=2	=2	=2	=2	=2	=2	=2
4C#/	4e\	4a/	.	4a/	.	.	.
!	!	!	!	!LO:TX:a:t=problem:wszystkie półnuty mają kwadratowe główki	!	!	!
4AA/	4c#\	2a/	.	2a/	.	.	.
4C#/	4e\	.	.	.	.	.	.
=3	=3	=3	=3	=3	=3	=3	=3
*2\right	*	*	*	*	*	*	*
!LO:TX:a:t=problem:wszystkie półnuty maja kwadratowe główki	!	!	!	!	!	!	!
2D\	4f#\	4a/	.	4a/	.	.	.
.	4g\	4b/	.	4b/	.	.	.
4r	4f#\	4a/	.	4a/	.	.	.
=4	=4	=4	=4	=4	=4	=4	=4
4F#\	4a\	16dd\KL	.	16dd\KL	.	.	.
.	.	8.cc#\	.	8.cc#\	.	.	.
4E\	4g\	16ee\K	.	16ee\K	.	.	.
.	.	8.dd\	.	8.dd\	.	.	.
4D/	4f#\	16ff#\K	.	16ff#\K	.	.	.
.	.	8.ee\J	.	8.ee\J	.	.	.
!	!	!	!	!LO:LB:g=original	!	!	!
=5	=5	=5	=5	=5	=5	=5	=5
!	!	!	!	!	!	!LO:N:vis=00	!
4C#/	4e\	4a/	.	4a/	.	0.r	.
4AA/	4c#/	2a/	.	2a/	.	.	.
4C#/	4e\	.	.	.	.	.	.
=6	=6	=6	=6	=6	=6	=6	=6
2D\	4f#\	4a/	.	4a/	.	.	.
.	4g\	4b/	.	4b/	.	.	.
4r	4f#\	4a/	.	4a/	.	.	.
!LO:LB:g=original	!	!	!	!	!	!	!
=7	=7	=7	=7	=7	=7	=7	=7
8r	8r	4d/ 4a 4ff#	.	4d/ 4a 4ff#	.	.	.
8d\L	8dd\L	.	.	.	.	.	.
8c#\	8cc#\	8ee\L	.	8ee\L	.	.	.
8B\	8b\	8dd\	.	8dd\	.	.	.
8A\	8a\	8cc#\	.	8cc#\	.	.	.
8G\J	8g\J	8b\J	.	8b\J	.	.	.
!	!LO:LB:g=original	!LO:LB:g=original	!	!	!	!	!
=8	=8	=8	=8	=8	=8	=8	=8
4F#\	4f#\	(8a\L	.	8a\L	.	.	.
.	.	8dd\)	.	8dd\	.	.	.
4E\	4g\	(8cc#\	.	8cc#\	.	.	.
.	.	8ee\)	.	8ee\	.	.	.
4D/	4f#\	(8dd\	.	8dd\	.	.	.
.	.	8ff#\J)	.	8ff#\J	.	.	.
=9	=9	=9	=9	=9	=9	=9	=9
!	!	!	!	!	!	!LO:N:vis=00	!
4C#/	4e\	2a/	.	2a/	.	0.r	.
8AA/L	8c#\L	.	.	.	.	.	.
8BB/	8d\	.	.	.	.	.	.
8C#/	8e\	4g/	.	4g/	.	.	.
8AA/J	8c#\J	.	.	.	.	.	.
=10	=10	=10	=10	=10	=10	=10	=10
4D\	4d\	8f#/L	.	8f#/L	.	.	.
.	.	16d/L	.	16d/L	.	.	.
.	.	16e/JJ	.	16e/JJ	.	.	.
4D\	4d\	8f#/L	.	8f#/L	.	.	.
.	.	8d/	.	8d/	.	.	.
4D\	4d\	8f#/	.	8f#/	.	.	.
.	.	8g#X/J	.	8g#X/J	.	.	.
=11	=11	=11	=11	=11	=11	=11	=11
4C#/	4e\	8a/L	.	8a/L	.	.	.
.	.	16a/L	.	16a/L	.	.	.
.	.	16b/JJ	.	16b/JJ	.	.	.
4C#/	4e\	8cc#\L	.	8cc#\L	.	.	.
.	.	8a\	.	8a\	.	.	.
4C#/	4e\	8b\	.	8b\	.	.	.
.	.	8cc#\J	.	8cc#\J	.	.	.
!	!	!	!	!LO:LB:g=original	!	!	!
=12	=12	=12	=12	=12	=12	=12	=12
4BB/	4f#\	8dd\L	.	8dd\L	.	.	.
.	.	16dd\L	.	16dd\L	.	.	.
.	.	16ee\JJ	.	16ee\JJ	.	.	.
4BB/	4d\	8ff#\L	.	8ff#\L	.	.	.
.	.	8dd\	.	8dd\	.	.	.
4BB/	4d\	8ff#\	.	8ff#\	.	.	.
.	.	8gg#X\J	.	8gg#X\J	.	.	.
=13	=13	=13	=13	=13	=13	=13	=13
!	!	!	!	!	!	!LO:N:vis=00	!
8r	8c#/L	4aa\	.	4aa\	.	0.r	.
16AA/LL	16A/L	.	.	.	.	.	.
16BB/JJ	16B/JJ	.	.	.	.	.	.
8C#/L	8c#/L	4a/	.	4a/	.	.	.
8AA/	8A/	.	.	.	.	.	.
8C#/	8c#/	4r	.	4r	.	.	.
8E/J	8e/J	.	.	.	.	.	.
=14	=14	=14	=14	=14	=14	=14	=14
4A\	4c#/	(16ee\LL	.	16ggn\LL	.	.	.
.	.	16ff#\	.	16aa\	.	.	.
.	.	16gg\	.	16bb\	.	.	.
.	.	16ff#\JJ)	.	16aa\JJ	.	.	.
4A\	4c#/	8ee\L	.	8gg\L	.	.	.
.	.	8ee\J	.	8gg\J	.	.	.
4A\	4c#/	8r	.	8r	.	.	.
!	!	!LO:PB:g=original	!	!	!	!	!
.	.	8ee\	.	8gg\	.	.	.
=15	=15	=15	=15	=15	=15	=15	=15
4A\	4c#/	8r	.	8r	.	.	.
.	.	8ee\	.	8gg\	.	.	.
4A\	4c#/	8r	.	8r	.	.	.
.	.	8ee\	.	8gg\	.	.	.
4A\	4c#/	8r	.	8r	.	.	.
.	.	8ee\	.	8gg\	.	.	.
!LO:LB:g=original	!	!	!	!	!	!	!
=16	=16	=16	=16	=16	=16	=16	=16
4A\	4a\	(16dd\LL	.	(16ff#\LL	.	.	.
.	.	16ee\	.	16gg\	.	.	.
.	.	16ff#\	.	16aa\	.	.	.
.	.	16ee\JJ)	.	16gg\JJ)	.	.	.
4A\	4a\	8dd\L	.	8ff#\L	.	.	.
.	.	8dd\J	.	8ff#\J	.	.	.
4A\	4a\	8r	.	8r	.	.	.
.	.	8dd\	.	8ff#\	.	.	.
!	!	!	!	!LO:LB:g=original	!	!	!
=17	=17	=17	=17	=17	=17	=17	=17
!	!	!	!	!	!	!LO:N:vis=00	!
4A\	4a\	8r	.	8r	.	0.r	.
.	.	8dd\	.	8ff#\	.	.	.
4A\	4a\	8r	.	8r	.	.	.
.	.	8dd\	.	8ff#\	.	.	.
4A\	4a\	8r	.	8r	.	.	.
.	.	8dd\	.	8ff#\	.	.	.
=18	=18	=18	=18	=18	=18	=18	=18
4A\	4c#/	(16ee\LL	.	(16gg\LL	.	.	.
.	.	16ff#\	.	16aa\	.	.	.
.	.	16gg\	.	16bb\	.	.	.
.	.	16ff#\JJ)	.	16aa\JJ)	.	.	.
4A\	4c#/	8ee\L	.	8gg\L	.	.	.
.	.	8ee\J	.	8gg\J	.	.	.
4A\	4c#/	8r	.	8r	.	.	.
.	.	8ee\	.	8gg\	.	.	.
!	!LO:LB:g=original	!	!	!	!	!	!
=19	=19	=19	=19	=19	=19	=19	=19
4A\	4c#/	8r	.	8r	.	.	.
.	.	8ee\	.	8gg\	.	.	.
4A\	4c#/	8r	.	8r	.	.	.
.	.	8ee\	.	8gg\	.	.	.
4A\	4c#/	8r	.	8r	.	.	.
.	.	8ee\	.	8gg\	.	.	.
!	!	!LO:LB:g=original	!	!	!	!	!
=20	=20	=20	=20	=20	=20	=20	=20
.	.	32qqgg/	.	.	.	.	.
8D\L	8d\L	16ff#\LL	.	16ff#\LL	.	.	.
.	.	16ee\J	.	16ee\J	.	.	.
8d\	8dd\	8ff#\J	.	8ff#\J	.	.	.
.	.	32qqaa/	.	.	.	.	.
8E\	8e\	16gg\LL	.	16gg\LL	.	.	.
.	.	16ff#\J	.	16ff#\J	.	.	.
8d\	8dd\	8gg\J	.	8gg\J	.	.	.
.	.	32qqbb/	.	.	.	.	.
8F#\	8f#\	16aa\LL	.	16aa\LL	.	.	.
.	.	16gg\J	.	16gg\J	.	.	.
8d\J	8dd\J	8aa\J	.	8aa\J	.	.	.
=21	=21	=21	=21	=21	=21	=21	=21
!	!	!	!	!	!	!LO:N:vis=00	!
4G\	8g\L	8b\L	.	8b\L	.	0.r	.
.	8b\	8gg\J	.	8gg\J	.	.	.
.	.	16qqgg/	.	.	.	.	.
4A\	8a\	8ff#\L	.	8ff#\L	.	.	.
.	8g\	8ee\	.	8ee\	.	.	.
4AA/	8f#\	8dd\	.	8dd\	.	.	.
.	8e\J	8cc#\J	.	8cc#\J	.	.	.
!	!	!	!	!LO:LB:g=original	!	!	!
=22	=22	=22	=22	=22	=22	=22	=22
8D\L	8d\L	4ff#t\	.	4ff#t\	.	.	.
8d\	8dd\	.	.	.	.	.	.
!	!	!LO:TX:a:t=problem:niejasne oznaczenia tryla	!	!	!	!	!
8E\	8e\	4ggT\	.	4ggT\	.	.	.
8d\	8dd\	.	.	.	.	.	.
8F#\	8f#\	4aaT\	.	4aaT\	.	.	.
8d\J	8dd\J	.	.	.	.	.	.
=23	=23	=23	=23	=23	=23	=23	=23
4G\	4g\	8b\L	.	8b\L	.	.	.
.	.	8gg\	.	8bb\	.	.	.
4A\	4a\	8ff#\	.	8aa\	.	.	.
.	.	8ee\	.	8gg\	.	.	.
4AA/	4A/	8dd\	.	8ff#\	.	.	.
.	.	8cc#\J	.	8ee\J	.	.	.
=24	=24	=24	=24	=24	=24	=24	=24
*	*2\right	*	*	*	*	*	*
!	!LO:TX:a:t=problem:wszystkie półnuty maja kwadratowe główki	!	!	!	!	!	!
2D\	2d\	4dd\	.	4dd\	.	.	.
.	.	4d/	.	4d/	.	.	.
4r	4r	4r	.	4r	.	.	.
!LO:LB:g=original	!	!	!	!	!	!	!
=25	=25	=25	=25	=25	=25	=25	=25
!LO:TX:a:t=[segno]	!LO:TX:a:t=[segno]	!LO:TX:a:t=[segno]	!	!LO:TX:a:t=[segno]	!	!LO:TX:a:t=[segno]	!
4D\	4d\	4f#/	.	4a/	.	4a\	Ad
4r	4r	4r	.	16dd\KL	.	(16dd\KL	te
.	.	.	.	8.cc#\	.	8.cc#\J)	.
4r	4r	4r	.	16ee\K	.	(16ee\KL	o
.	.	.	.	8.dd\J	.	8.dd\J)	.
=26	=26	=26	=26	=26	=26	=26	=26
4C#/	4c#/	4e/	.	4a/	.	4a\	Cla-
*	*	*	*	*	*	*2\right	*
!	!	!	!	!	!	!LO:TX:a:t=problem:wszystkie półnuty mają kwadratowe główki	!
4AA/	4A/	4c#/	.	2a/	.	2a\	-ra
4C#/	4c#/	4e/	.	.	.	.	.
=27	=27	=27	=27	=27	=27	=27	=27
2D\	2d\	4f#/	.	4a/	.	4aT\	cla-
.	.	4g/	.	4b/	.	4b\	-ma-
4r	4r	4f#/	.	4a/	.	4a\	-mus
!	!LO:LB:g=original	!LO:LB:g=original	!	!	!	!	!
=28	=28	=28	=28	=28	=28	=28	=28
4F#\	4f#\	4a/	.	16dd\KL	.	(16dd\KL	ô
.	.	.	.	8.cc#\	.	8.cc#\J)	.
4E\	4e\	4g/	.	16ee\K	.	16ee\KL	Ma-
.	.	.	.	8.dd\	.	8.dd\J	.
4D\	4d\	4f#/	.	16ff#\K	.	16ff#\KL	-ter
.	.	.	.	8.ee\J	.	8.ee\J	.
!	!	!	!	!	!	!LO:LB:g=original	!
=29	=29	=29	=29	=29	=29	=29	=29
4C#/	4c#/	4e/	.	4a/	.	4a\	cha-
4AA/	4A/	4c#/	.	2a/	.	2a\	-ra
4C#/	4c#/	4e/	.	.	.	.	.
!	!	!	!	!LO:LB:g=original	!	!	!
=30	=30	=30	=30	=30	=30	=30	=30
2D\	2d\	4f#/	.	4a/	.	4a\	cla-
.	.	4g/	.	4b/	.	4b\	-ma-
4r	4r	4f#/	.	4a/	.	4a\	-mus
=31	=31	=31	=31	=31	=31	=31	=31
8r	8r	4d/ 4a 4ff#	.	4d/ 4a 4ff#	.	4ff#\	ad
8d\L	8dd\L	.	.	.	.	.	.
8c#\	8cc#\	8ee\L	.	8ee\L	.	8ee\L	te
8B\	8b\	8dd\	.	8dd\	.	8dd\J	.
8A\	8a\	8cc#\	.	8cc#\	.	8cc#\L	ge-
8G\J	8g\J	8b\J	.	8b\J	.	8b\J	.
=32	=32	=32	=32	=32	=32	=32	=32
4F#\	4f#\	4a/	.	8a\L	.	(4a\	-men-
.	.	.	.	8dd\	.	.	.
4E\	4e\	4g/	.	8cc#\	.	4cc#\)	.
.	.	.	.	8ee\	.	.	.
4D\	4d\	4f#/	.	8dd\	.	4dd\	-tes
.	.	.	.	8ff#\J	.	.	.
!LO:LB:g=original	!	!	!	!	!	!	!
=33	=33	=33	=33	=33	=33	=33	=33
4C#/	4c#/	4e/	.	2a/	.	2a\	Fi-
8AA/L	8A/L	8c#/L	.	.	.	.	.
8BB/	8B/	8d/	.	.	.	.	.
8C#/	8c#/	8e/	.	4g/	.	4g\	-li-
8AA/J	8A/J	8c#/J	.	.	.	.	.
=34	=34	=34	=34	=34	=34	=34	=34
!LO:TX:a:t=d	!	!LO:TX:a:t=problem:mixed beam	!	!LO:TX:a:t=problem:mixed beam	!	!	!
8D\L	8d\L	8f#/L	.	8f#/L	.	2f#/	-a
16d\L	16dd\L	16dd\L	.	16dd\L	.	.	.
16c#\JJ	16cc#\JJ	16cc#\JJ	.	16cc#\JJ	.	.	.
8d\L	8dd\L	8dd\L	.	8dd\L	.	.	.
8A\	8a\	8a\	.	8a\	.	.	.
8F#\	8f#\	8f#\	.	8f#\	.	4r	.
8A\J	8a\J	8a\J	.	8a\J	.	.	.
=35	=35	=35	=35	=35	=35	=35	=35
4D\	4d\	8d/L	.	8d/L	.	4d/	cla-
.	.	16d/L	.	16d/L	.	.	.
.	.	16e/JJ	.	16e/JJ	.	.	.
4D\	4d\	8f#/L	.	8f#/L	.	4f#/	-ma-
.	.	8d/	.	8d/	.	.	.
4D\	4d\	8f#/	.	8f#/	.	4g#X/	-mus
!	!	!	!	!LO:TX:a:t=problem: custos a	!	!	!
.	.	8g#X/J	.	8g#X/J	.	.	.
!	!	!LO:LB:g=original	!	!LO:PB:g=original	!	!	!
=36	=36	=36	=36	=36	=36	=36	=36
4C#/	4e\	8a\L	.	8a\L	.	4a\	ge-
.	.	16a\L	.	16a\L	.	.	.
.	.	16b\JJ	.	16b\JJ	.	.	.
4C#/	4e\	8cc#\L	.	8cc#\L	.	4cc#\	-men-
.	.	8a\	.	8a\	.	.	.
4C#/	4e\	8b\	.	8b\	.	4ee\	-tes
.	.	8cc#\J	.	8cc#\J	.	.	.
!	!LO:LB:g=original	!	!	!	!	!LO:LB:g=original	!
=37	=37	=37	=37	=37	=37	=37	=37
4BB/	4f#\	8dd\L	.	8dd\L	.	2ee\	fi-
.	.	16dd\L	.	16dd\L	.	.	.
.	.	16ee\JJ	.	16ee\JJ	.	.	.
4BB/	4d\	8ff#\L	.	8ff#\L	.	.	.
.	.	8dd\	.	8dd\	.	.	.
4BB/	4B\	8ff#\	.	8ff#\	.	4dd\	-li-
.	.	8gg#X\J	.	8gg#X\J	.	.	.
=38	=38	=38	=38	=38	=38	=38	=38
!LO:TX:a:t=problem:mixed beam	!LO:TX:a:t=problem:mixed beam	!LO:TX:a:t=problem:mixed beam	!	!LO:TX:a:t=problem:mixed beam	!	!	!
8AA/L	8A/L	8aa\L	.	8aa\L	.	2cc#\	-a
16A\L	16a\L	16a/L	.	16a/L	.	.	.
16B\JJ	16b\JJ	16b/JJ	.	16b/JJ	.	.	.
8c#\L	8cc#\L	8cc#/L	.	8cc#/L	.	.	.
8A\	8a\	8a/	.	8a/	.	.	.
8c#\	8cc#\	8cc#/	.	8cc#/	.	8r	.
8e\J	8ee\J	8ee/J	.	8ee/J	.	8ee\	Tu
=39	=39	=39	=39	=39	=39	=39	=39
4e\	4ee\	4ee\	.	4ee\	.	4ee\	es-
8d\L	8dd\L	8dd\L	.	8dd\L	.	8dd\L	-to
8c#\J	8cc#\	8cc#\	.	8cc#\	.	8cc#\J	.
8B\L	8b\	8b\	.	8b\	.	(<8b\	.
8A\J	8a\J	8a\J	.	8a\J	.	8a/)	so-
!LO:LB:g=original	!	!	!	!	!	!	!
=40	=40	=40	=40	=40	=40	=40	=40
8G#X\L	8g#X\L	8g#X/L	.	8g#X/L	.	(8g#X/L	-la-
8F#\J	8f#\J	8f#/J	.	8f#/J	.	8f#/J)	.
4E\	4e\	4e/	.	4e/	.	4e/	-men
!	!	!	!	!LO:TX:a:t=problem:custos dd	!	!	!
4r	4r	4r	.	4r	.	8r	.
.	.	.	.	.	.	8e/	le-
!	!	!	!	!LO:LB:g=original	!	!	!
=41	=41	=41	=41	=41	=41	=41	=41
4E\	4g#X\	(16b\LL	.	(16dd\LL	.	[2.dd\	-va-
.	.	16cc#\	.	16ee\	.	.	.
.	.	16dd\	.	16ff#\	.	.	.
.	.	16cc#\JJ)	.	16ee\JJ)	.	.	.
4E\	4g#\	8b\L	.	8dd\L	.	.	.
.	.	8b\J	.	8dd\J	.	.	.
4E\	4g#\	8r	.	8r	.	.	.
!	!	!LO:LB:g=original	!	!	!	!	!
.	.	8b\	.	8dd\	.	.	.
=42	=42	=42	=42	=42	=42	=42	=42
*	*	*	*	*	*	*Xtuplet	*
!	!	!	!	!	!	!LO:TX:a:t=problem:brk oznaczenia triol	!
4E\	4g#X\	8r	.	8r	.	12dd\L]	.
.	.	.	.	.	.	12ff#\	.
.	.	8b/	.	8dd\	.	.	.
.	.	.	.	.	.	12ee\J	.
4E\	4g#\	8r	.	8r	.	12dd\L	.
.	.	.	.	.	.	12cc#\	.
.	.	8b/	.	8dd\	.	.	.
.	.	.	.	.	.	12b\J	.
4E\	4g#\	8r	.	8r	.	12dd\L	.
.	.	.	.	.	.	12cc#\	.
.	.	8b/	.	8dd\	.	.	.
.	.	.	.	.	.	12b\J	.
=43	=43	=43	=43	=43	=43	=43	=43
4E\	4a\	(16a/LL	.	(16cc#\LL	.	[2.cc#t\	.
.	.	16b/	.	16dd\	.	.	.
.	.	16cc#/	.	16ee\	.	.	.
.	.	16b/JJ)	.	16dd\JJ)	.	.	.
4E\	4e\	8a/L	.	8cc#\L	.	.	.
.	.	8a/J	.	8cc#\J	.	.	.
4E\	4e\	8r	.	8r	.	.	.
.	.	8a/	.	8cc#\	.	.	.
!	!	!	!	!	!	!LO:LB:g=original	!
=44	=44	=44	=44	=44	=44	=44	=44
!	!	!	!	!	!	!LO:TX:a:t=problem:brak zakończenia ligatury	!
4E\	4e\	8r	.	8r	.	12cc#\L]	.
.	.	.	.	.	.	12ee\	.
.	.	8a/	.	8cc#\	.	.	.
.	.	.	.	.	.	12dd\J	.
4E\	4e\	8r	.	8r	.	12cc#\L	.
.	.	.	.	.	.	12b\	.
.	.	8a/	.	8cc#\	.	.	.
.	.	.	.	.	.	12a\J	.
4E\	4e\	8r	.	8r	.	12cc#\L	.
.	.	.	.	.	.	12b\	.
.	.	8a/	.	8cc#\	.	.	.
.	.	.	.	.	.	12a\J	.
!	!LO:LB:g=original	!	!	!	!	!	!
=45	=45	=45	=45	=45	=45	=45	=45
4E\	4g#X\	(16b\LL	.	(16dd\LL	.	[2.dd\	.
.	.	16cc#\	.	16ee\	.	.	.
.	.	16dd\	.	16ff#\	.	.	.
.	.	16cc#\JJ)	.	16ee\JJ)	.	.	.
!	!	!	!	!LO:LB:g=original	!	!	!
4E\	4g#\	8b\L	.	8dd\L	.	.	.
.	.	8b\J	.	8dd\J	.	.	.
4E\	4g#\	8r	.	8r	.	.	.
.	.	8b\	.	8dd\	.	.	.
=46	=46	=46	=46	=46	=46	=46	=46
!	!LO:TX:a:t=sic:s=4g#	!	!	!	!	!	!
4E\	4g\	8r	.	8r	.	12dd\L]	.
.	.	.	.	.	.	12ff#\	.
.	.	8b\	.	8dd\	.	.	.
.	.	.	.	.	.	12ee\J	.
!	!LO:TX:a:t=sic:s=4g#	!	!	!	!	!	!
4E\	4g\	8r	.	8r	.	12dd\L	.
.	.	.	.	.	.	12cc#\	.
.	.	8b\	.	8dd\	.	.	.
.	.	.	.	.	.	12b\J	.
!	!LO:TX:a:t=sic:s=4g#	!	!	!	!	!	!
4E\	4g\	8r	.	8r	.	12dd\L	.
.	.	.	.	.	.	12cc#\	.
.	.	8b\	.	8dd\	.	.	.
.	.	.	.	.	.	12b\J	.
!	!	!LO:LB:g=original	!	!	!	!	!
=47	=47	=47	=47	=47	=47	=47	=47
4A\	4a\	4a/	.	4cc#\	.	12cc#\L	.
.	.	.	.	.	.	12a\	.
.	.	.	.	.	.	12b\J	.
4A\	4a\	4r	.	4r	.	12cc#\L	.
.	.	.	.	.	.	12b\	.
.	.	.	.	.	.	12a\J	.
4A\	4a\	4cc#\	.	4ee\	.	12ee\L	.
.	.	.	.	.	.	12dd\	.
.	.	.	.	.	.	12cc#\J	.
=48	=48	=48	=48	=48	=48	=48	=48
4A\	4a\	4dd\	.	4ff#\	.	12ff#\L	.
.	.	.	.	.	.	12ee\	.
.	.	.	.	.	.	12dd\J	.
4A\	4a\	4cc#\	.	4ee\	.	12ee\L	.
.	.	.	.	.	.	12dd\	.
.	.	.	.	.	.	12cc#\J	.
4A\	4a\	4b\	.	4dd\	.	12dd\L	.
.	.	.	.	.	.	12cc#\	.
.	.	.	.	.	.	12b\J	.
!	!	!	!	!	!	!LO:LB:g=original	!
=49	=49	=49	=49	=49	=49	=49	=49
4A\	4a\	4a/	.	4cc#\	.	12cc#\L	.
.	.	.	.	.	.	12a\	.
.	.	.	.	.	.	12b\J	.
4A\	4a\	4r	.	4r	.	12cc#\L	.
.	.	.	.	.	.	12b\	.
.	.	.	.	.	.	12a\J	.
4A\	4a\	4cc#\	.	4ee\	.	12ee\L	.
.	.	.	.	.	.	12dd\	.
.	.	.	.	.	.	12cc#\J	.
=50	=50	=50	=50	=50	=50	=50	=50
4A\	4a\	4dd\	.	4ff#\	.	12ff#\L	.
.	.	.	.	.	.	12ee\	.
.	.	.	.	.	.	12dd\J	.
4A\	4a\	4cc#\	.	4ee\	.	12ee\L	.
.	.	.	.	.	.	12dd\	.
.	.	.	.	.	.	12cc#\J	.
4A\	4a\	4b/	.	4dd\	.	12ee\L	.
.	.	.	.	.	.	12dd\	.
.	.	.	.	.	.	12cc#\J	.
!LO:LB:g=original	!	!	!	!	!	!	!
=51	=51	=51	=51	=51	=51	=51	=51
*	*	*2\right	*	*2\right	*	*	*
!	!	!LO:TX:a:t=problem:wszystkie półnuty mają kwadratowe główki	!	!	!	!	!
8r	8r	[2.aa\	.	[2.aa\	.	[2.aa\	.
16A\LL	16a\LL	.	.	.	.	.	.
16B\JJ	16b\JJ	.	.	.	.	.	.
8c#\L	8cc#\L	.	.	.	.	.	.
8A\	8a\	.	.	.	.	.	.
8B\	8b\	.	.	.	.	.	.
8c#\J	8cc#\J	.	.	.	.	.	.
=52	=52	=52	=52	=52	=52	=52	=52
4d\	4dd\	8aa\L]	.	8aa\L]	.	8aa\]	.
.	.	8dd\J	.	8ff#\	.	8ff#\	.
.	.	16qqdd/	.	.	.	.	.
4e\	4e\	8cc#\L	.	8ee\	.	8ee\L	.
.	.	8b\	.	8dd\	.	8dd\J	.
4E/	4e\	8a\	.	8cc#\	.	8cc#\L	.
.	.	8g#X\J	.	8b\J	.	8b\J	.
!	!	!	!	!LO:LB:g=original	!	!	!
=53	=53	=53	=53	=53	=53	=53	=53
.	.	16qqa/	.	.	.	.	.
8r	8r	2.aa\	.	[2.aa\	.	[2.aa\	.
16AA/LL	16A/LL	.	.	.	.	.	.
16BB/JJ	16B/JJ	.	.	.	.	.	.
8C#/L	8c#/L	.	.	.	.	.	.
8AA/	8A/	.	.	.	.	.	.
8BB/	8B/	.	.	.	.	.	.
8C#/J	8c#/J	.	.	.	.	.	.
=54	=54	=54	=54	=54	=54	=54	=54
4D\	4d\	8aa\L	.	8aa\L]	.	8aa\]	.
.	.	8dd\	.	8ff#\	.	8ff#\	.
4E\	4e\	8cc#\	.	8ee\	.	8ee\L	.
.	.	8b\	.	8dd\	.	8dd\J	.
!	!	!	!	!	!	!LO:TX:a:t=sic:s=8cc#	!
4EE/	4E/	8a\	.	8cc#\	.	8dd\L	.
!	!	!	!	!	!	!LO:TX:a:t=sic:s=8b	!
.	.	8g#X\J	.	8b\J	.	8cc#\J	.
!	!LO:LB:g=original	!	!	!	!	!LO:LB:g=original	!
=55	=55	=55	=55	=55	=55	=55	=55
4AA/	4A/	8a/L	.	8a\L	.	2a\	-men.
.	.	16a/L	.	16a\L	.	.	.
.	.	16b/JJ	.	16b\JJ	.	.	.
4A\	4a\	8cc#/L	.	8cc#\L	.	.	.
.	.	8a/	.	8a\	.	.	.
4A\	4a\	8cc#/	.	8cc#\	.	4r	.
.	.	8dd#X/J	.	8dd#X\J	.	.	.
!	!	!LO:LB:g=original	!	!	!	!	!
=56	=56	=56	=56	=56	=56	=56	=56
!	!	!	!	!	!	!LO:TX:a:t=10	!
!	!	!	!	!LO:TX:a:t=SIC!:s:ee	!	!LO:N:vis=00	!
4G#X\	4b\	8ee\L	.	8ff#\L	.	0.r	.
!	!	!	!	!LO:TX:a:t=SIC!:S:ee	!	!	!
.	.	16ee\L	.	16ff#\L	.	.	.
.	.	16ff#\JJ	.	16ff#\JJ	.	.	.
4G#\	4b\	8gg#X\L	.	8gg#X\L	.	.	.
.	.	8ee\	.	8ee\	.	.	.
4G#\	4b\	8ff#\	.	8ff#\	.	.	.
.	.	8gg#\J	.	8gg#\J	.	.	.
=57	=57	=57	=57	=57	=57	=57	=57
4F#\	4a\	8aa\L	.	8aa\L	.	.	.
.	.	16aa\L	.	16aa\L	.	.	.
.	.	16bb\JJ	.	16bb\JJ	.	.	.
4F#\	4a\	8ccc#\L	.	8ccc#\L	.	.	.
.	.	8aa\	.	8aa\	.	.	.
4F#\	4a\	8ccc#\	.	8ccc#\	.	.	.
.	.	8ddd#X\J	.	8ddd#X\J	.	.	.
=58	=58	=58	=58	=58	=58	=58	=58
8r	8g#X\L	4eee\	.	4eee\	.	.	.
!LO:LB:g=original	!	!	!	!	!	!	!
16E\LL	16e\L	.	.	.	.	.	.
16F#\JJ	16f#\JJ	.	.	.	.	.	.
8G#X\L	8g#X\L	4ee\	.	4ee\	.	.	.
8E\	8e\	.	.	.	.	.	.
8G#\	8g#\	4r	.	4r	.	.	.
8B\J	8b\J	.	.	.	.	.	.
!	!	!	!	!LO:LB:g=original	!	!	!
=59	=59	=59	=59	=59	=59	=59	=59
4e\	4g#X\	(16b\LL	.	16dd\LL	.	.	.
.	.	16cc#\	.	16ee\	.	.	.
.	.	16dd\	.	16ff#\	.	.	.
.	.	16cc#\JJ)	.	16ee\JJ	.	.	.
4e\	4g#\	8b/L	.	8dd\L	.	.	.
.	.	8b/J	.	8dd\J	.	.	.
4e\	4g#\	8r	.	8r	.	.	.
.	.	8b/	.	8dd\	.	.	.
=60	=60	=60	=60	=60	=60	=60	=60
!	!LO:TX:a:t=sic:s=4g#	!	!	!	!	!LO:N:vis=00	!
4e\	4g\	8r	.	8r	.	0.r	.
.	.	8b/	.	8dd\	.	.	.
!	!LO:TX:a:t=sic:s=4g#	!	!	!	!	!	!
4e\	4g\	8r	.	8r	.	.	.
.	.	8b/	.	8dd\	.	.	.
!	!LO:TX:a:t=sic:s=4g#	!	!	!	!	!	!
4e\	4g\	8r	.	8r	.	.	.
.	.	8b/	.	8dd\	.	.	.
=61	=61	=61	=61	=61	=61	=61	=61
!LO:TX:a:t=problem:mixed beam	!LO:TX:a:t=problem:mixed beam	!	!	!	!	!	!
8AA/L	8A/L	4cc#m\	.	4cc#t\	.	.	.
8A\	8a\	.	.	.	.	.	.
!	!	!	!	!LO:TX:a:t=problem:niewyraźne oznaczenie:tryl?	!	!	!
8BB/	8B/	4ddM\	.	4ddT\	.	.	.
8A\	8a\	.	.	.	.	.	.
8C#/	8c#/	4eeM\	.	4eeT\	.	.	.
8A\J	8a\J	.	.	.	.	.	.
=62	=62	=62	=62	=62	=62	=62	=62
4D\	8d\L	8ff#\L	.	8ff#\L	.	.	.
.	8f#\	8dd\	.	8dd\	.	.	.
4E\	8e\	8cc#\	.	8cc#\	.	.	.
.	8d\J	8b\	.	8b\	.	.	.
4EE/	8c#\L	8a\	.	8a\	.	.	.
.	8B\J	8g#X\J	.	8g#X\J	.	.	.
!	!LO:LB:g=original	!LO:LB:g=original	!	!	!	!	!
=63	=63	=63	=63	=63	=63	=63	=63
!LO:TX:a:t=problem:mixed beam	!LO:TX:a:t=problem:mixed beam	!	!	!	!	!	!
8AA/L	8A/L	4cc#t\	.	4cc#t\	.	.	.
8A\	8a\	.	.	.	.	.	.
!	!	!LO:TX:a:t=problem:niewyraźne oznaczenie: tryl/mordent	!	!	!	!	!
8BB/	8B/	4ddM\	.	4ddT\	.	.	.
8A\	8a\	.	.	.	.	.	.
8C#/	8c#/	4eeM\	.	4eeT\	.	.	.
8A\J	8a\J	.	.	.	.	.	.
=64	=64	=64	=64	=64	=64	=64	=64
!	!	!	!	!	!	!LO:N:vis=0	!
4D\	8d\L	8ff#\L	.	8ff#\L	.	1.r	.
.	8f#\	8ddd\	.	8ddd\	.	.	.
4E\	8e\	8ccc#\	.	8ccc#\	.	.	.
.	8d\	8bb\	.	8bb\	.	.	.
4EE/	8c#\	8aa\	.	8aa\	.	.	.
.	8B\J	8gg#X\J	.	8gg#X\J	.	.	.
!LO:LB:g=original	!	!	!	!LO:LB:g=original	!	!	!
=65	=65	=65	=65	=65	=65	=65	=65
4AA/	2c#\	4aa\	.	4aa\	.	.	.
8A\L	.	4a/	.	4a/	.	.	.
8G\	.	.	.	.	.	.	.
8F#\	4r	4r	.	4r	.	.	.
8E\J	.	.	.	.	.	.	.
=66	=66	=66	=66	=66	=66	=66	=66
!	!	!	!LO:DY:a	!	!	!	!
4D/	4d\	4f#/	p	4a\	.	4a\	Ad
4r	4r	4r	.	16dd\KL	.	(16dd\KL	Te
.	.	.	.	8.cc#\	.	8.cc#\J)	.
4r	4r	4r	.	16ee\K	.	16ee\KL	ô
.	.	.	.	8.dd\J	.	8.dd\J	.
=67	=67	=67	=67	=67	=67	=67	=67
4C#/	4c#/	4e/	.	4a/	.	4a\	Cla-
4AA/	4A/	4c#/	.	2a/	.	2a\	-ra
4C#/	4c#/	4e/	.	.	.	.	.
=68	=68	=68	=68	=68	=68	=68	=68
2D\	2d\	4f#/	.	4a/	.	4a\	cla-
.	.	4g/	.	4b/	.	4b\	-ma-
4r	4ryy	4f#/	.	4a/	.	4a\	-mus
=69	=69	=69	=69	=69	=69	=69	=69
4F#\	4f#\	4a/	.	16dd\KL	.	16dd\KL	ô
.	.	.	.	8.cc#\	.	8.cc#\J	.
4E\	4e\	4g/	.	16ee\	.	16ee\KL	Ma-
.	.	.	.	8.dd\	.	8.dd\J	.
4D\	4d\	4f#/	.	16ff#\	.	16ff#\KL	-ter
.	.	.	.	8.ee\J	.	8.ee\J	.
=70	=70	=70	=70	=70	=70	=70	=70
4C#/	4c#/	4e/	.	4a/	.	4a\	cha-
4AA/	4A/	4c#/	.	2a/	.	2a\	-ra
4C#/	4c#/	4e/	.	.	.	.	.
=71	=71	=71	=71	=71	=71	=71	=71
2D\	2d\	4f#/	.	4a/	.	4aT\	cla-
.	.	4g/	.	4b/	.	4b\	-ma-
4r	4r	4f#/	.	4a/	.	4a\	-mus
!	!	!	!	!LO:LB:g=original	!	!LO:PB:g=original	!
=72	=72	=72	=72	=72	=72	=72	=72
8r	8r	4d/ 4a 4ff#	.	4d/ 4a 4ff#	.	4ff#\	ad
8d\L	8dd\L	.	.	.	.	.	.
8c#\	8cc#\	8ee\L	.	8ee\L	.	8ee\L	Te
8B\	8b\	8dd\	.	8dd\	.	8dd\J	.
8A\	8a\	8cc#\	.	8cc#\	.	8cc#\L	ge-
8G\J	8g\J	8b\J	.	8b\J	.	8b\J	.
!LO:PB:g=original	!LO:LB:g=original	!LO:LB:g=original	!	!	!	!	!
=73	=73	=73	=73	=73	=73	=73	=73
4F#\	4f#\	4a/	.	(8a\L	.	(4a\	-men-
.	.	.	.	8dd\)	.	.	.
4E\	4e\	4g/	.	(8cc#\	.	4cc#\)	.
.	.	.	.	8ee\)	.	.	.
4D\	4d\	4f#/	.	(8dd\	.	4dd\	-tes
.	.	.	.	8ff#\J)	.	.	.
=74	=74	=74	=74	=74	=74	=74	=74
4C#/	4c#/	4e/	.	2a/	.	2a\	Fi-
8AA/L	8A/L	8c#/L	.	.	.	.	.
8BB/	8B/	8d/	.	.	.	.	.
8C#/	8c#/	8e/	.	4g/	.	4g\	-li-
8AA/J	8A/J	8c#/J	.	.	.	.	.
=75	=75	=75	=75	=75	=75	=75	=75
!LO:TX:a:t=problem:mixed beam	!	!LO:TX:a:t=problem:mixed beam	!	!LO:TX:a:t=problem:mixed beam	!	!	!
8D/L	8d\L	8f#/L	.	8f#/L	.	2f#/	-a
16d\L	16dd\L	16dd\L	.	16dd\L	.	.	.
16c#\JJ	16cc#\JJ	16cc#\JJ	.	16cc#\JJ	.	.	.
8d\L	8dd\L	8dd\L	.	8dd\L	.	.	.
8A\	8a\	8a\	.	8a\	.	.	.
8F#\	8f#\	8f#\	.	8f#\	.	4r	.
8A\J	8a\J	8a\J	.	8a\J	.	.	.
=76	=76	=76	=76	=76	=76	=76	=76
4D\	4d\	8d/L	.	8d/L	.	4d/	es-
.	.	16d/L	.	16d/L	.	.	.
.	.	16e/JJ	.	16e/JJ	.	.	.
4D\	4d\	8f#/L	.	8f#/L	.	4f#/	-to
.	.	8d/	.	8d/	.	.	.
4D\	4d\	8f#/	.	8f#/	.	4a\	so-
.	.	8a/J	.	8a/J	.	.	.
=77	=77	=77	=77	=77	=77	=77	=77
4Cn/	4f#\	8dd\L	.	8dd\L	.	4dd\	-la-
.	.	16dd\L	.	16dd\L	.	.	.
.	.	16ee\JJ	.	16ee\JJ	.	.	.
4C/	4a\	8ff#\L	.	8ff#\L	.	2f#t/	-men
.	.	8dd\	.	8dd\	.	.	.
4C/	4a\	8ff#\	.	8ff#\	.	.	.
.	.	8aa\J	.	8aa\J	.	.	.
!	!	!	!	!LO:LB:g=original	!	!	!
=78	=78	=78	=78	=78	=78	=78	=78
!LO:TX:a:t=problem:mixed beam	!	!LO:TX:a:t=problem:mixed beam	!	!LO:TX:a:t=problem:mixed beam	!	!	!
8BB/L	8d\L	8gg\L	.	8gg\L	.	8g/L	no-
16G\L	16g\L	16g/L	.	16g/L	.	8f#/J	.
16A\JJ	16a\JJ	16a/JJ	.	16a/JJ	.	.	.
8B\L	8b\L	8b/L	.	8b/L	.	4g/	-bis
8A\	8a\	8a/	.	8a/	.	.	.
8G\	8g\	8g/	.	8g/	.	4r	.
8F#\J	8f#\J	8f#/J	.	8f#/J	.	.	.
=79	=79	=79	=79	=79	=79	=79	=79
4E\	4e\	8e/L	.	8e/L	.	4e/	es-
.	.	16e/L	.	16e/L	.	.	.
.	.	16f#/JJ	.	16f#/JJ	.	.	.
4E\	4e\	8g#X/L	.	8g#X/L	.	4g#X/	-to
.	.	8e/	.	8e/	.	.	.
4E\	4e\	8g#/	.	8g#/	.	4b\	la-
.	.	8b/J	.	8b/J	.	.	.
!	!	!LO:LB:g=original	!	!	!	!LO:LB:g=original	!
=80	=80	=80	=80	=80	=80	=80	=80
4D\	4g#X\	8ee\L	.	8ee\L	.	4ee\	-va-
.	.	16ee\L	.	16ee\L	.	.	.
.	.	16ff#\JJ	.	16ff#\JJ	.	.	.
4D\	4b\	8gg#X\L	.	8gg#X\L	.	2g#X/	-men
.	.	8ee\	.	8ee\	.	.	.
4D\	4b\	8gg#\	.	8gg#\	.	.	.
.	.	8bb\J	.	8bb\J	.	.	.
!LO:LB:g=original	!LO:LB:g=original	!	!	!	!	!	!
=81	=81	=81	=81	=81	=81	=81	=81
!	!	!LO:TX:a:t=problem:mixed beam	!	!LO:TX:a:t=problem:mixed beam	!	!	!
8C#\L	8e\L	8aa\L	.	8aa\L	.	8a\L	no-
16A\L	16a\L	16a/L	.	16a/L	.	8g#X\J	.
16B\JJ	16b\JJ	16b/JJ	.	16b/JJ	.	.	.
8c#\L	8cc#\L	8cc#\L	.	8cc#\L	.	4a\	-bis
8A\	8a\	8a\	.	8a\	.	.	.
!	!	!	!	!	!	!LO:TX:a:t=problem:pauza ćwiećnutowa dodatkowa	!
!	!	!	!	!	!	!LO:N:vis=8	!
8c#\	8cc#\	8cc#\	.	8cc#\	.	16r	.
!	!	!	!	!	!	!LO:N:vis=4	!
.	.	.	.	.	.	16r	.
8e\J	8ee\J	8ee\J	.	8ee\J	.	8ee\	ad
=82	=82	=82	=82	=82	=82	=82	=82
2.C#/	2.a\	2.ee\	.	2.gg\	.	4.ee\	Te
.	.	.	.	.	.	8g/	o
.	.	.	.	.	.	8g/	Ma-
.	.	.	.	.	.	8g/	-ter
=83	=83	=83	=83	=83	=83	=83	=83
!	!	!	!	!LO:TX:a:t=problem:custos d	!	!	!
8r	8r	8r	.	8r	.	4g/	cha-
!	!	!	!	!LO:LB:g=original	!	!	!
16D\LL	16d\LL	16d/LL	.	16d/LL	.	.	.
16E\JJ	16e\JJ	16e/JJ	.	16e/JJ	.	.	.
8F#\L	8f#\L	8f#/L	.	8f#/L	.	4f#/	-ra
8D\	8d\	8d/	.	8d/	.	.	.
8F#\	8f#\	8f#/	.	8f#/	.	8r	.
8A\J	8a\J	8a/J	.	8a/J	.	8dd\	cla-
=84	=84	=84	=84	=84	=84	=84	=84
2.GG#X/	2.G#X/	2.dd\	.	2.ff#\	.	4.dd\	-ma-
.	.	.	.	.	.	8f#/	-mus
.	.	.	.	.	.	8f#/	San-
.	.	.	.	.	.	8f#/	-cta
=85	=85	=85	=85	=85	=85	=85	=85
2AA/	2A/	4d/	.	4f#/	.	4f#/	Cla-
.	.	4c#/	.	4e/	.	4e/	-ra
4r	4r	4r	.	4r	.	8r	.
!	!	!	!	!	!	!LO:TX:a:t=a	!
.	.	.	.	.	.	8a\	cla-
!	!	!	!	!	!	!LO:LB:g=original	!
=86	=86	=86	=86	=86	=86	=86	=86
4F#\	4d\	4ccn\	.	4aa\	.	[4a\	-ma-
4F#\	4d\	4cc\	.	4aa\	.	12a\L]	.
.	.	.	.	.	.	12ee\	.
.	.	.	.	.	.	12dd\J	.
4F#\	4d\	4cc\	.	4aa\	.	12ccn\L	.
.	.	.	.	.	.	12b\	.
.	.	.	.	.	.	12a\J	.
=87	=87	=87	=87	=87	=87	=87	=87
4G\	4d\	4b/	.	4gg\	.	12b\L	.
.	.	.	.	.	.	12g\	.
.	.	.	.	.	.	12a\J	.
4G\	4d\	4b/	.	4gg\	.	12b\L	.
.	.	.	.	.	.	12a\	.
.	.	.	.	.	.	12g\J	.
4G\	4d\	4b/	.	4gg\	.	12b\L	.
.	.	.	.	.	.	12a\	.
.	.	.	.	.	.	12g\J	.
=88	=88	=88	=88	=88	=88	=88	=88
4G#X\	4e\	4dd\	.	4bb\	.	[4b\	.
4G#\	4e\	4dd\	.	4bb\	.	12b\L]	.
.	.	.	.	.	.	12ff#\	.
.	.	.	.	.	.	12ee\J	.
4G#\	4e\	4dd\	.	4bb\	.	12dd\L	.
.	.	.	.	.	.	12cc#\	.
.	.	.	.	.	.	12b\J	.
!LO:LB:g=original	!	!LO:LB:g=original	!	!	!	!	!
=89	=89	=89	=89	=89	=89	=89	=89
4A\	4e\	4cc#X\	.	4aa\	.	12cc#\L	.
.	.	.	.	.	.	12a\	.
.	.	.	.	.	.	12b\J	.
4A\	4e\	4cc#\	.	4aa\	.	12cc#\L	.
.	.	.	.	.	.	12b\	.
.	.	.	.	.	.	12a\J	.
4A\	4e\	4cc#\	.	4aa\	.	12cc#\L	.
.	.	.	.	.	.	12b\	.
.	.	.	.	.	.	12a\J	.
=90	=90	=90	=90	=90	=90	=90	=90
4A#X\	4f#\	4ee\	.	4ccc#\	.	[4cc#\	.
!	!	!	!	!	!	!LO:LB:g=original	!
4A#\	4f#\	4ee\	.	4ccc#\	.	12cc#\L]	.
.	.	.	.	.	.	12gg\	.
.	.	.	.	.	.	12ff#\J	.
4A#\	4f#\	4ee\	.	4ccc#\	.	12ee\L	.
.	.	.	.	.	.	12dd\	.
.	.	.	.	.	.	12cc#\J	.
!	!LO:LB:g=original	!	!	!	!	!	!
=91	=91	=91	=91	=91	=91	=91	=91
4B\	4f#\	4dd\	.	4bb\	.	12dd\L	.
.	.	.	.	.	.	12b\	.
.	.	.	.	.	.	12cc#\J	.
4B\	4b\	4dd\	.	4ff#\	.	12dd\L	.
.	.	.	.	.	.	12ee\	.
.	.	.	.	.	.	12ff#\J	.
4E\	4b\	4ee\	.	4gg\	.	12gg\L	.
.	.	.	.	.	.	12ff#\	.
.	.	.	.	.	.	12gg\J	.
!	!	!	!	!LO:LB:g=original	!	!	!
=92	=92	=92	=92	=92	=92	=92	=92
4A\	4cc#\	4ee\	.	4gg\	.	12cc#\L	.
.	.	.	.	.	.	12a\	.
.	.	.	.	.	.	12b\J	.
4A\	4cc#\	4ee\	.	4gg\	.	12cc#\L	.
.	.	.	.	.	.	12dd\	.
.	.	.	.	.	.	12ee\J	.
4D/	4a\	4dd\	.	4ff#\	.	12ff#\L	.
.	.	.	.	.	.	12ee\	.
.	.	.	.	.	.	12ff#\J	.
=93	=93	=93	=93	=93	=93	=93	=93
4G\	4b\	4dd\	.	4ff#\	.	12b\L	.
.	.	.	.	.	.	12cc#\	.
.	.	.	.	.	.	12dd\J	.
4G\	4g\	4ee\	.	4gg\	.	12ee\L	.
.	.	.	.	.	.	12ff#\	.
.	.	.	.	.	.	12gg\J	.
4G#X\	4g#X\	4dd\	.	4ff#\	.	12ff#\L	.
.	.	.	.	.	.	12ee\	.
.	.	.	.	.	.	12dd\J	.
=94	=94	=94	=94	=94	=94	=94	=94
4A\	4a\	4cc#\	.	4ee\	.	12cc#\L	.
.	.	.	.	.	.	12b\	.
.	.	.	.	.	.	12a\J	.
!	!	!	!	!	!	!LO:LB:g=original	!
4r	4r	4r	.	4r	.	4a\	-mus
8r	8r	8r	.	8r	.	8r	.
8A\	8a\	8a/	.	8a/	.	8a\	ge-
=95	=95	=95	=95	=95	=95	=95	=95
4.d\	4.dd\	4.dd\	.	4.dd\	.	4.dd\	-men-
8Fn\L	8fn\L	8fn/L	.	8fn/L	.	8fn/	-tes
8E\	8e\	8e/	.	8e/	.	8e/	Fi-
8D\J	8d\J	8d/J	.	8d/J	.	8d/	-li-
=96	=96	=96	=96	=96	=96	=96	=96
!	!	!	!	!LO:TX:a:t=problem:dodatkowa pauza 4	!	!	!
2A\	2a\	2a/	.	2a/	.	2a\	-a
!	!	!	!	!LO:N:vis=8	!	!	!
8r	8r	8r	.	16r	.	8r	.
!	!	!	!	!LO:N:vis=4	!	!	!
.	.	.	.	16r	.	.	.
8A\	8a\	8a/	.	8a/	.	8a\	ge-
=97	=97	=97	=97	=97	=97	=97	=97
!	!	!LO:N:vis=4	!	!	!	!	!
4.d\	4.dd\	4.dd\	.	4.dd\	.	4.dd\	-men-
!LO:LB:g=original	!	!	!	!	!	!	!
8Fn\L	8fn\L	8fn/L	.	8fn/L	.	8fn/	-tes
8E\	8e\	8e/	.	8e/	.	8e/	fi-
8D\J	8d\J	8d/J	.	8d/J	.	8d/	-li-
=98	=98	=98	=98	=98	=98	=98	=98
!	!	!LO:N:vis=2.	!	!	!	!	!
2AA;/	2A/	2A;/	.	2A;/	.	2aT;\	-a
!	!	!LO:TX:b:t=Volti Subito.	!	!	!	!	!
4r	4r;	4r	.	4r	.	4r	.
!	!LO:PB:g=original	!LO:PB:g=original	!	!LO:LB:g=original	!	!	!
=99	=99	=99	=99	=99	=99	=99	=99
4A\	4c#/	16ee\LL	.	(16gg\LL	.	4a\	es-
.	.	16ff#\	.	16aa\	.	.	.
.	.	16gg\	.	16bb\	.	.	.
.	.	16ff#\JJ	.	16aa\JJ)	.	.	.
4A\	4c#/	8ee\L	.	8gg\L	.	4cc#\	-to
.	.	8ee\J	.	8gg\J	.	.	.
4A\	4c#/	8r	.	8r	.	4ee\	so-
.	.	8ee\	.	8gg\	.	.	.
=100	=100	=100	=100	=100	=100	=100	=100
4A\	4c#\	8r	.	8r	.	4ee\	-la-
.	.	8ee\	.	8gg\	.	.	.
4A\	4c#\	8r	.	8r	.	2g/	-men
.	.	8ee\	.	8gg\	.	.	.
4A\	4c#\	8r	.	8r	.	.	.
.	.	8ee\	.	8gg\	.	.	.
!	!	!	!	!	!	!LO:LB:g=original	!
=101	=101	=101	=101	=101	=101	=101	=101
4A\	4d\	16dd\LL	.	(16ff#\LL	.	8f#/L	Cla-
.	.	16ee\	.	16gg\	.	.	.
.	.	16ff#\	.	16aa\	.	8a/J	.
.	.	16ee\JJ	.	16gg\JJ)	.	.	.
4A\	4a\	8dd\L	.	8ff#\L	.	4dd\	-ra
.	.	8dd\J	.	8ff#\J	.	.	.
4A\	4a\	8r	.	8r	.	8r	.
.	.	8dd\	.	8ff#\	.	8ff#\	i
=102	=102	=102	=102	=102	=102	=102	=102
4A\	4c#\	16ee\LL	.	(16gg\LL	.	4.ee\	Di-
.	.	16ff#\	.	16aa\	.	.	.
.	.	16gg\	.	16bb\	.	.	.
.	.	16ff#\JJ	.	16aa\JJ)	.	.	.
!	!	!	!	!LO:TX:a:t=g	!	!	!
4A\	4a\	8ee\L	.	8gg\L	.	.	.
!	!	!	!	!LO:TX:a:t=g	!	!	!
.	.	8ee\J	.	8gg\J	.	8cc#\	-va
4A\	4a\	8r	.	8r	.	8a/	Ma-
.	.	8ee\	.	8gg\	.	8g/	-ter
=103	=103	=103	=103	=103	=103	=103	=103
4A\	4d\	16dd\LL	.	(16ff#\LL	.	8f#/L	Cla-
.	.	16ee\	.	16gg\	.	.	.
.	.	16ff#\	.	16aa\	.	8a/J	.
.	.	16ee\JJ	.	16gg\JJ)	.	.	.
!	!	!	!	!LO:LB:g=original	!	!	!
4A\	4a\	8dd\L	.	8ff#\L	.	4dd\	-ra
.	.	8dd\J	.	8ff#\J	.	.	.
4A\	4a\	8r	.	8r	.	8r	.
.	.	8dd\	.	8ff#\	.	8ff#\	Tu
!	!	!LO:LB:g=original	!	!	!	!	!
=104	=104	=104	=104	=104	=104	=104	=104
4A\	4c#\	16ee\LL	.	(16gg\LL	.	4.ee\	no-
.	.	16ff#\	.	16aa\	.	.	.
.	.	16gg\	.	16bb\	.	.	.
.	.	16ff#\JJ	.	16aa\JJ)	.	.	.
4A\	4a\	8ee\L	.	8gg\L	.	.	.
.	.	8ee\J	.	8gg\J	.	8cc#\	-bis
4A\	4a\	8r	.	8r	.	8a/	sis
.	.	8ee\	.	8gg\	.	8g/	so-
=105	=105	=105	=105	=105	=105	=105	=105
4D\	4d\	4ff#t\	.	4ff#t\	.	4f#t/	-la-
4E\	4e\	4ggT\	.	4ggT\	.	4gM/	.
4F#\	4f#\	4aaT\	.	4aaT\	.	4aM\	.
=106	=106	=106	=106	=106	=106	=106	=106
4G\	4g\	4bbT\	.	4bbT\	.	4bM\	.
4A\	4a\	4ccc#t\	.	4ccc#m\	.	4cc#m\	.
4B\	4b\	4dddT\	.	4dddM\	.	4ddM\	.
!	!	!	!	!	!	!LO:LB:g=original	!
=107	=107	=107	=107	=107	=107	=107	=107
4c#\	4cc#\	4.ee\	.	4.ee\	.	4.ee\	.
!LO:LB:g=original	!	!	!	!	!	!	!
4A\	4c#/	.	.	.	.	.	.
.	.	(16ff#\LL	.	(16ff#\LL	.	16ff#\LL	.
.	.	16gg\JJ)	.	16gg\JJ)	.	16gg\JJ	.
4d\	4d/	4ff#\	.	4ff#\	.	4ff#\	.
=108	=108	=108	=108	=108	=108	=108	=108
4G\	4g\	4ee\	.	4ee\	.	4ee\	.
4A\	2e\	2cc#t\	.	2cc#t\	.	2cc#t\	.
4AA/	.	.	.	.	.	.	.
=109	=109	=109	=109	=109	=109	=109	=109
4D\	4d\	(16dd\LL	.	(16ff#\LL	.	2dd\	-men
.	.	16ee\	.	16gg\	.	.	.
.	.	16ff#\	.	16aa\	.	.	.
.	.	16ee\JJ)	.	16gg\JJ)	.	.	.
4d\	4dd\	8dd\L	.	8ff#\L	.	.	.
.	.	8dd\J	.	8ff#\J	.	.	.
4c#\	4cc#\	8r	.	8r	.	4r	.
.	.	8dd\	.	8ff#\	.	.	.
!	!LO:LB:g=original	!	!	!LO:LB:g=original	!	!	!
=110	=110	=110	=110	=110	=110	=110	=110
4B\	4b\	8r	.	8r	.	4r	.
.	.	8dd\	.	8ff#\	.	.	.
4A\	4a\	8r	.	8r	.	4r	.
.	.	8dd\	.	8ff#\	.	.	.
4G#X\	4g#X\	8r	.	8r	.	4dd\	le-
.	.	8dd\	.	8ff#\	.	.	.
!	!	!LO:LB:g=original	!	!	!	!	!
=111	=111	=111	=111	=111	=111	=111	=111
2.A;\	2a\	2dd;\	.	2ff#\	.	2.dd;\	-va-
.	4r	4r	.	4r	.	.	.
=112	=112	=112	=112	=112	=112	=112	=112
!	!	!	!	!LO:TX:b:t=Volti Subito	!	!	!
!	!LO:TX:a:t=1	!LO:TX:a:t=1	!	!LO:TX:a:t=1	!	!	!
!	!LO:TX:a:t=problem:1 pod klamrą łukową	!	!	!LO:TX:a:t=problem:1 pod klamrą łukową	!	!	!
2.AA/	2.r	2.r	.	2.r	.	2.ee\	.
!	!	!	!	!LO:PB:g=original	!	!	!
=113	=113	=113	=113	=113	=113	=113	=113
4D/	4f#\	8r	.	8r	.	2dd\	-men.
.	.	16dd\LL	.	16dd\LL	.	.	.
.	.	16ee\JJ	.	16ee\JJ	.	.	.
4D/	4f#\	8ff#\L	.	8ff#\L	.	.	.
.	.	8dd\	.	8dd\	.	.	.
4D/	4f#\	8ff#\	.	8ff#\	.	4r	.
.	.	8gg#X\J	.	8gg#X\J	.	.	.
=114	=114	=114	=114	=114	=114	=114	=114
!	!	!LO:TX:a:t=problem:mixed beam	!	!LO:TX:a:t=problem:mixed beam	!	!LO:TX:a:t=9	!
!	!	!	!	!	!	!LO:N:vis=00	!
4C#/	4e\	8aa\L	.	8aa\L	.	0.r	.
.	.	16a/L	.	16a/L	.	.	.
.	.	16b/JJ	.	16b/JJ	.	.	.
4C#/	4e\	8cc#/L	.	8cc#/L	.	.	.
.	.	8a/	.	8a/	.	.	.
4C#/	4e\	8b/	.	8b/	.	.	.
.	.	8cc#/J	.	8cc#/J	.	.	.
=115	=115	=115	=115	=115	=115	=115	=115
!	!	!LO:TX:a:t=problem:mixed beam	!	!LO:TX:a:t=problem:mixed beam	!	!	!
4BB/	4d\	8dd\L	.	8dd\L	.	.	.
.	.	16d/L	.	16d/L	.	.	.
.	.	16e/JJ	.	16e/JJ	.	.	.
4BB/	4d\	8f#/L	.	8f#/L	.	.	.
.	.	8d/	.	8d/	.	.	.
4BB/	4d\	8f#/	.	8f#/	.	.	.
.	.	8g#X/J	.	8g#X/J	.	.	.
=116	=116	=116	=116	=116	=116	=116	=116
8r	8c#/L	4a/	.	4a/	.	.	.
16AA/LL	16A/L	.	.	.	.	.	.
16BB/JJ	16B/JJ	.	.	.	.	.	.
8C#/L	8c#/L	4A/	.	4A/	.	.	.
8AA/	8A/	.	.	.	.	.	.
8C#/	8c#/	4r	.	4r	.	.	.
8E/J	8e/J	.	.	.	.	.	.
!LO:LB:g=original	!	!	!	!	!	!	!
=117	=117	=117	=117	=117	=117	=117	=117
4A\	4c#\	(16ee\LL	.	(16gg\LL	.	.	.
.	.	16ff#\	.	16aa\	.	.	.
.	.	16gg\	.	16bb\	.	.	.
.	.	16ff#\JJ)	.	16aa\JJ)	.	.	.
!	!	!LO:LB:g=original	!	!	!	!	!
4A\	4c#\	8ee\L	.	8gg\L	.	.	.
.	.	8ee\J	.	8gg\J	.	.	.
4A\	4c#\	8r	.	8r	.	.	.
.	.	8ee\	.	8gg\	.	.	.
!	!	!	!	!LO:LB:g=original	!	!	!
=118	=118	=118	=118	=118	=118	=118	=118
!	!	!	!	!	!	!LO:N:vis=00	!
4A\	4c#\	8r	.	8r	.	0.r	.
.	.	8ee\	.	8gg\	.	.	.
4A\	4c#\	8r	.	8r	.	.	.
.	.	8ee\	.	8gg\	.	.	.
4A\	4c#\	8r	.	8r	.	.	.
.	.	8ee\	.	8gg\	.	.	.
=119	=119	=119	=119	=119	=119	=119	=119
8D\L	8d\L	4ff#t\	.	4ff#t\	.	.	.
8d\	8dd\	.	.	.	.	.	.
!	!	!LO:TX:a:t=problem:niewyraźne oznaczenie:tryl/mordent	!	!	!	!	!
8E\	8e\	4ggT\	.	4ggT\	.	.	.
8d\	8dd\	.	.	.	.	.	.
8F#\	8f#\	4aaT\	.	4aaT\	.	.	.
8d\J	8dd\J	.	.	.	.	.	.
!	!LO:LB:g=original	!	!	!	!	!	!
=120	=120	=120	=120	=120	=120	=120	=120
4G\	8g\L	8b\L	.	8b\L	.	.	.
.	8b\	8gg\	.	8gg\	.	.	.
4A\	8a\	8ff#\	.	8ff#\	.	.	.
.	8g\	8ee\	.	8ee\	.	.	.
4AA/	8f#\	8dd\	.	8dd\	.	.	.
.	8e\J	8cc#\J	.	8cc#\J	.	.	.
=121	=121	=121	=121	=121	=121	=121	=121
8D\L	8d\L	4ff#t\	.	4ff#\	.	.	.
8d\	8dd\	.	.	.	.	.	.
!	!	!LO:TX:A:t=problem:niewyraźne oznaczenie:tryl/mordent	!	!	!	!	!
8E\	8e\	4ggM\	.	4gg\	.	.	.
8d\	8dd\	.	.	.	.	.	.
8F#\	8f#\	4aaM\	.	4aa\	.	.	.
8d\J	8dd\J	.	.	.	.	.	.
=122	=122	=122	=122	=122	=122	=122	=122
!	!	!	!	!LO:TX:a:t=problem:mixed beam	!	!	!
4G\	4g\	8b\L	.	8b/L	.	2.r	.
.	.	8gg\	.	8bb\	.	.	.
4A\	4a\	8ff#\	.	8aa\	.	.	.
.	.	8ee\	.	8gg\	.	.	.
4AA/	4A/	8dd\	.	8ff#\	.	.	.
.	.	8cc#\J	.	8ee\J	.	.	.
=123	=123	=123	=123	=123	=123	=123	=123
2D;\	2d;\	4dd\	.	4dd\	.	4r	.
.	.	4d;/	.	4d;/	.	4r	.
4r	4r	4r	.	4r	.	8r	.
.	.	.	.	.	.	8f#/	Spon-
!	!	!LO:LB:g=original	!	!	!	!LO:LB:g=original	!
=124	=124	=124	=124	=124	=124	=124	=124
8r	8r	8r	.	8r	.	2b\	-sa
16BB/LL	16B/LL	16B/LL	.	16B/LL	.	.	.
16C#/JJ	16c#/JJ	16c#/JJ	.	16c#/JJ	.	.	.
8D/L	8d/L	8d/L	.	8d/L	.	.	.
8BB/	8B/	8B/	.	8B/	.	.	.
8D/	8d/	8d/	.	8d/	.	4r	.
8F#/J	8f#/J	8f#/J	.	8f#/J	.	.	.
!LO:LB:g=original	!	!	!	!LO:LB:g=original	!	!	!
=125	=125	=125	=125	=125	=125	=125	=125
4B\	4b\	8b\L	.	8b\L	.	4b\	com-
.	.	16b\L	.	16b\L	.	.	.
.	.	16cc#\JJ	.	16cc#\JJ	.	.	.
4B\	4b\	8dd\L	.	8dd\L	.	4dd\	-pla-
.	.	8b\	.	8b\	.	.	.
4B\	4b\	8dd\	.	8dd\	.	4b\	-cu-
.	.	8ee\J	.	8ee\J	.	.	.
=126	=126	=126	=126	=126	=126	=126	=126
!	!	!LO:TX:a:t=problem:mixed beam	!	!LO:TX:a:t=problem:mixed beam	!	!	!
4A#X\	4cc#\	8ff#\L	.	8ff#\L	.	4ff#\	-i-
.	.	16f#/L	.	16f#/L	.	.	.
.	.	16g#X/JJ	.	16g#X/JJ	.	.	.
4A#\	4f#\	8a#X/L	.	8a#X/L	.	4f#/	-sti
.	.	8f#/	.	8f#/	.	.	.
4A#\	4f#\	8a#/	.	8a#/	.	8r	.
.	.	8cc#/J	.	8cc#/J	.	8f#/	et
=127	=127	=127	=127	=127	=127	=127	=127
2.F#\	2.cc#\	2.ee\	.	2.aa#X\	.	4.ee\	in
.	.	.	.	.	.	8ee\	e-
.	.	.	.	.	.	8dd\	-jus
.	.	.	.	.	.	8cc#\	a-
!	!LO:LB:g=original	!	!	!	!	!	!
=128	=128	=128	=128	=128	=128	=128	=128
4BB/	4b\	4dd\	.	4bb\	.	8dd\L	-mo-
.	.	.	.	.	.	8cc#\J	.
4r	4r	4r	.	4r	.	4b\	-re
4r	4r	4r	.	4r	.	4r	.
=129	=129	=129	=129	=129	=129	=129	=129
!LO:TX:a:t=1	!LO:TX:a:t=1	!	!	!	!	!	!
2.r	2.r	4dd\	.	4dd\	.	4dd\	e-
*	*	*Xtuplet	*	*Xtuplet	*	*	*
!	!	!LO:TX:a:t=problem:brak oznaczenia triol	!	!LO:TX:a:t=problem:brak oznaczernia triol	!	!	!
.	.	12ff#\L	.	12ff#\L	.	12ff#\L	-jus
.	.	12ee\	.	12ee\	.	12ee\	.
.	.	12dd\J	.	12dd\J	.	12dd\J	.
.	.	12cc#/L	.	12cc#\L	.	12cc#\L	a-
.	.	12b/	.	12b\	.	12b\	.
.	.	12a/J	.	12a\J	.	12a\J	.
=130	=130	=130	=130	=130	=130	=130	=130
4E\	4e\	2g#X/	.	2g#X/	.	2.g#X/	-mo-
*Xtuplet	*Xtuplet	*	*	*	*	*	*
!LO:TX:a:t=problem:brak oznaczenia triol	!LO:TX:a:t=problem:brak oznaczenia triol	!	!	!	!	!	!
(12e\L	12e\L	.	.	.	.	.	.
12d\	12d\	.	.	.	.	.	.
12c#\J)	12c#\J	.	.	.	.	.	.
(12d\L	12d\L	4r	.	4r	.	.	.
12c#\	12c#\	.	.	.	.	.	.
12B\J)	12B\J	.	.	.	.	.	.
!	!	!LO:LB:g=original	!	!	!	!LO:LB:g=original	!
=131	=131	=131	=131	=131	=131	=131	=131
4A\	4A/	4cc#\	.	4cc#\	.	4cc#\	.
4r	4r	12ee\L	.	12ee\L	.	12ee\L	.
.	.	12dd\	.	12dd\	.	12dd\	.
.	.	12cc#\J	.	12cc#\J	.	12cc#\J	.
!	!	!	!	!LO:LB:g=original	!	!	!
4r	4r	12b/L	.	12b/L	.	12b\L	.
.	.	12a/	.	12a/	.	12a\	.
.	.	12gn/J	.	12gn/J	.	12gn\J	.
=132	=132	=132	=132	=132	=132	=132	=132
4D/	4d/	2f#/	.	2f#/	.	2f#/	.
(12d\L	12d/L	.	.	.	.	.	.
12cn\	12cn/	.	.	.	.	.	.
12B\J)	12B/J	.	.	.	.	.	.
(12c\L	12c/L	4f#/	.	4a/	.	4a\	-re
12B\	12B/	.	.	.	.	.	.
12A\J)	12A/J	.	.	.	.	.	.
!LO:LB:g=original	!	!	!	!	!	!	!
=133	=133	=133	=133	=133	=133	=133	=133
(12B\L	12B/L	4g/	.	4dd\	.	4dd\	to-
12A\	12A/	.	.	.	.	.	.
12G\J)	12G/J	.	.	.	.	.	.
(12A\L	12A/L	4f#/	.	4ccn\	.	4ccn\	-ta
12G\	12G/	.	.	.	.	.	.
12F#\J)	12F#/J	.	.	.	.	.	.
8G\L	8G/L	8d/L	.	4b/	.	4b\	ar-
8C#X\J	8c#X/J	8g/J	.	.	.	.	.
=134	=134	=134	=134	=134	=134	=134	=134
4D\	4d\	4g/	.	4b/	.	4b\	-si-
4DD/	4D/	4f#/	.	4a/	.	4a\	-sti
4r	4r	4r	.	4r	.	4r	.
!	!LO:LB:g=original	!	!	!	!	!	!
=135	=135	=135	=135	=135	=135	=135	=135
!LO:TX:a:t=1	!LO:TX:a:t=1	!LO:TX:a:t=1	!	!LO:TX:a:t=1	!	!	!
2.r	2.r	2.r	.	2.r	.	4d/	e-
.	.	.	.	.	.	4f#/	-jus
.	.	.	.	.	.	4a\	a-
=136	=136	=136	=136	=136	=136	=136	=136
4D\	4f#\	16a/LL	.	(16ccn\LL	.	4ccn\	-mo-
.	.	16b/	.	16dd\	.	.	.
.	.	16ccn/	.	16ee\	.	.	.
.	.	16b/JJ	.	16dd\JJ)	.	.	.
4D\	4f#\	8a/L	.	8cc\L	.	2cc\	-re
.	.	8a/J	.	8cc\J	.	.	.
4D\	4f#\	8r	.	8r	.	.	.
.	.	8a/	.	8cc\	.	.	.
=137	=137	=137	=137	=137	=137	=137	=137
!	!	!	!	!	!	!LO:TX:a:t=sic:s=8ccn	!
4D\	4f#\	8r	.	8r	.	8cc#\L	to-
.	.	8a/	.	8ccn\	.	8b\J	.
!	!	!	!	!	!	!LO:TX:a:t=sic:s=4ccn	!
4D\	4f#\	8r	.	8r	.	4cc#\	-ta
!	!	!	!	!	!LO:DY:b	!	!
!	!	!	!	!	!LO:DY:t=fortissimo	!	!
.	.	8a/	.	8cc\	ff	.	.
4D\	4f#\	8r	.	8r	.	8r	.
!	!	!	!	!	!	!LO:LB:g=original	!
!	!	!	!	!	!	!LO:TX:a:t=sic:s=8ccn	!
.	.	8a/	.	8cc\	.	8cc#\	a-
!	!	!	!	!LO:LB:g=original	!	!	!
=138	=138	=138	=138	=138	=138	=138	=138
4G\	4g\	4g/	.	4b/	.	12b\L	.
.	.	.	.	.	.	12g\	.
.	.	.	.	.	.	12a\J	.
4G\	4g\	4r	.	4r	.	12b\L	.
.	.	.	.	.	.	12a\	.
.	.	.	.	.	.	12g\J	.
!	!	!LO:LB:g=original	!	!	!	!	!
4G\	4g\	4b\	.	4dd\	.	12dd\L	.
.	.	.	.	.	.	12ccn\	.
.	.	.	.	.	.	12b\J	.
=139	=139	=139	=139	=139	=139	=139	=139
4G\	4g\	4ccn\	.	4ee\	.	12ee\L	.
.	.	.	.	.	.	12dd\	.
.	.	.	.	.	.	12ccn\J	.
4G\	4g\	4b/	.	4dd\	.	12dd\L	.
.	.	.	.	.	.	12ccn\	.
.	.	.	.	.	.	12b\J	.
4G\	4g\	4a/	.	4ccn\	.	12cc\L	.
.	.	.	.	.	.	12b\	.
.	.	.	.	.	.	12a\J	.
=140	=140	=140	=140	=140	=140	=140	=140
4G\	4g\	4g/	.	4b\	.	12b\L	.
.	.	.	.	.	.	12g\	.
.	.	.	.	.	.	12a\J	.
4G\	4g\	4r	.	4r	.	12b\L	.
.	.	.	.	.	.	12a\	.
.	.	.	.	.	.	12g\J	.
4G\	4g\	4b/	.	4dd\	.	12dd\L	.
.	.	.	.	.	.	12ccn\	.
.	.	.	.	.	.	12b\J	.
=141	=141	=141	=141	=141	=141	=141	=141
4G\	4g\	4ccn\	.	4ee\	.	12ee\L	.
.	.	.	.	.	.	12dd\	.
.	.	.	.	.	.	12ccn\J	.
!	!	!	!	!	!	!LO:LB:g=original	!
4G\	4g\	4b/	.	4dd\	.	12dd\L	.
.	.	.	.	.	.	12ccn\	.
.	.	.	.	.	.	12b\J	.
4G\	4g\	4a/	.	4ccn\	.	12cc\L	.
.	.	.	.	.	.	12b\	.
.	.	.	.	.	.	12a\J	.
!LO:LB:g=original	!	!	!	!	!	!	!
=142	=142	=142	=142	=142	=142	=142	=142
8r	8r	[2.gg\	.	[2.gg\	.	2.gg\	.
16G\LL	16g\LL	.	.	.	.	.	.
16A\JJ	16a\JJ	.	.	.	.	.	.
8B\L	8b\L	.	.	.	.	.	.
8G\	8g\	.	.	.	.	.	.
8A\	8a\	.	.	.	.	.	.
8B\J	8b\J	.	.	.	.	.	.
=143	=143	=143	=143	=143	=143	=143	=143
4cn\	4ccn\	8gg\L]	.	8gg\L]	.	8gg\	.
.	.	8ccn\	.	8ee\	.	8ee\	.
4d\	4d\	8b\	.	8dd\	.	8dd\L	.
.	.	8a\	.	8ccn\	.	8ccn\J	.
4D/	4d\	8g\	.	8b\	.	8b\L	.
.	.	8f#\J	.	8a\J	.	8a\J	.
=144	=144	=144	=144	=144	=144	=144	=144
8r	8r	[2.gg\	.	[2.gg\	.	2.gg\	.
16GG/LL	16G/LL	.	.	.	.	.	.
16AA/JJ	16A/JJ	.	.	.	.	.	.
8BB/L	8B/L	.	.	.	.	.	.
8GG/	8G/	.	.	.	.	.	.
8AA/	8A/	.	.	.	.	.	.
8BB/J	8B/J	.	.	.	.	.	.
!	!LO:LB:g=original	!	!	!	!	!	!
=145	=145	=145	=145	=145	=145	=145	=145
4Cn/	4cn\	8gg\L]	.	8gg\L]	.	8gg\	.
.	.	8ccn\	.	8ee\	.	8ee\	.
4D\	4d\	8b\	.	8dd\	.	8dd\L	.
.	.	8a\	.	8ccn\	.	8ccn\J	.
4DD/	4D/	8g\	.	8b\	.	8b\L	-mo-
.	.	8f#\J	.	8a\J	.	8a\J	.
=146	=146	=146	=146	=146	=146	=146	=146
!LO:TX:a:t=problem:mixed beam	!LO:TX:a:t=problem:mixed beam	!	!	!	!	!	!
8GG/L	8G/L	8g/L	.	8g/L	.	2g/	-re.
16G\L	16g\L	16g/L	.	16g/L	.	.	.
!	!	!	!	!LO:TX:a:t=problem:custos b	!	!	!
16A\JJ	16a\JJ	16a/JJ	.	16a/JJ	.	.	.
!	!	!	!	!LO:LB:g=original	!	!	!
8B\L	8b\L	8b/L	.	8b/L	.	.	.
8A\	8a\	8a/	.	8a/	.	.	.
8G\	8g\	8g/	.	8g/	.	4r	.
8F#\J	8f#\J	8f#/J	.	8f#/J	.	.	.
!	!	!LO:LB:g=original	!	!	!	!LO:LB:g=original	!
=147	=147	=147	=147	=147	=147	=147	=147
!	!	!	!	!	!	!LO:TX:a:t=10	!
!	!	!	!	!	!	!LO:N:vis=00	!
8E\L	8e\L	8e/L	.	8e/L	.	0.r	.
16E\L	16e\L	16e/L	.	16e/L	.	.	.
16F#\JJ	16f#\JJ	16f#/JJ	.	16f#/JJ	.	.	.
8G\L	8g\L	8g/L	.	8g/L	.	.	.
8F#\	8f#\	8f#/	.	8f#/	.	.	.
8E\	8e\	8e/	.	8e/	.	.	.
8D\J	8d\J	8d/J	.	8d/J	.	.	.
!LO:LB:g=original	!	!	!	!	!	!	!
=148	=148	=148	=148	=148	=148	=148	=148
8C#/L	8c#X/L	8c#X/L	.	8c#X/L	.	.	.
16C#/L	16c#/L	16c#/L	.	16c#/L	.	.	.
16D/JJ	16d/JJ	16d/JJ	.	16d/JJ	.	.	.
8E/L	8e/L	8e/L	.	8e/L	.	.	.
8D/	8d/	8d/	.	8d/	.	.	.
8C#/	8c#/	8c#/	.	8c#/	.	.	.
8BB/J	8B/J	8B/J	.	8B/J	.	.	.
=149	=149	=149	=149	=149	=149	=149	=149
8AA/L	8A/L	4A/	.	4A/	.	.	.
16AA/L	16A/L	.	.	.	.	.	.
16BB/JJ	16B/JJ	.	.	.	.	.	.
8C#/L	8c#/L	4r	.	4r	.	.	.
8AA/	8A/	.	.	.	.	.	.
8C#/	8c#/	4r	.	4r	.	.	.
8E/J	8e/J	.	.	.	.	.	.
=150	=150	=150	=150	=150	=150	=150	=150
4A\	4c#/	16ee\LL	.	16gg\LL	.	.	.
.	.	16ff#\	.	16aa\	.	.	.
.	.	16gg\	.	16bb\	.	.	.
.	.	16ff#\JJ	.	16aa\JJ	.	.	.
4A\	4c#/	8ee\L	.	8gg\L	.	.	.
.	.	8ee\J	.	8gg\J	.	.	.
4A\	4c#/	8r	.	8r	.	.	.
.	.	8ee\	.	8gg\	.	.	.
=151	=151	=151	=151	=151	=151	=151	=151
!	!	!	!	!	!	!LO:N:vis=00	!
4A\	4c#/	8r	.	8r	.	0.r	.
.	.	8ee\	.	8gg\	.	.	.
4A\	4c#/	8r	.	8r	.	.	.
!	!	!	!	!LO:LB:g=original	!	!	!
.	.	8ee\	.	8gg\	.	.	.
4A\	4c#/	8r	.	8r	.	.	.
.	.	8ee\	.	8gg\	.	.	.
!	!LO:LB:g=original	!	!	!	!	!	!
=152	=152	=152	=152	=152	=152	=152	=152
8D\L	8d\L	4ff#t\	.	4ff#t\	.	.	.
8d\	8dd\	.	.	.	.	.	.
!	!	!LO:TX:a:t=problem:niewyraźne oznaczenie:tryl/mordent	!	!	!	!	!
8E\	8e\	4ggM\	.	4ggT\	.	.	.
8d\	8dd\	.	.	.	.	.	.
8F#\	8f#\	4aaM\	.	4aaT\	.	.	.
8d\J	8dd\J	.	.	.	.	.	.
!	!	!LO:LB:g=original	!	!	!	!	!
=153	=153	=153	=153	=153	=153	=153	=153
4G\	8g\L	8b\L	.	8b\L	.	.	.
.	8b\	8gg\	.	8gg\	.	.	.
4A\	8a\	8ff#\	.	8ff#\	.	.	.
.	8g\	8ee\	.	8ee\	.	.	.
4AA/	8f#\	8dd\	.	8dd\	.	.	.
.	8e\J	8cc#\J	.	8cc#\J	.	.	.
=154	=154	=154	=154	=154	=154	=154	=154
8D\L	8d\L	4ff#\	.	4ff#\	.	.	.
8d\	8dd\	.	.	.	.	.	.
8E\	8e\	4gg\	.	4gg\	.	.	.
8d\	8dd\	.	.	.	.	.	.
8F#\	8f#\	4aa\	.	4aa\	.	.	.
8d\J	8dd\J	.	.	.	.	.	.
=155	=155	=155	=155	=155	=155	=155	=155
!	!	!	!	!LO:TX:a:t=problem:mixed beam	!	!LO:N:vis=0	!
4G\	4g\	8b\L	.	8b/L	.	1.r	.
.	.	8bb\	.	8bb\	.	.	.
4A\	4a\	8aa\	.	8aa\	.	.	.
.	.	8gg\	.	8gg\	.	.	.
4AA/	4A/	8ff#\	.	8ff#\	.	.	.
.	.	8ee\J	.	8ee\J	.	.	.
!LO:LB:g=original	!	!	!	!	!	!	!
=156	=156	=156	=156	=156	=156	=156	=156
!	!	!	!	!	!	!LO:TX:b:t=Da Capo al Segno [segno]:	!
2DD/	2d\	4dd\	.	4dd\	.	.	.
.	.	4d/	.	4d/	.	.	.
!LO:TX:b:t=Da Capo al Segno [segno].	!LO:TX:b:t=Da Capo al Segno [segno]	!LO:TX:b:t=Da Capo al Segno [segno].	!	!LO:TX:b:t=Da Capo al Segno [segno].	!	!	!
4r	4r	4r	.	4r	.	.	.
==	==	==	==	==	==	==	==
*-	*-	*-	*-	*-	*-	*-	*-
!!!system-decoration: [(g1)][(g2)]{g3}
!!!RDF**kern: >= above
!!!RDF**kern: <= below
!!!ENC: Anna Matuszewska
!!!END: 2020-08-14
